X: 1 Speed 60
T: Off She Goes
M: 6/8
L: 1/8
R: jig
K: Dmaj
|:F2A G2B|ABc "B"d2A|F2A G2B|AFD EzD|
w: F2 A G2 B A B c d2 A F2 A G2 B A F D E D
F2A G2B|ABc "B"d2e|"|"f2d "|"g2f|1edc dzA :|2edc dze||
w: F2 A G2 B A B c d2 e f2 d g2 f e d c d A e d c d e
|:"|"f2f def|"R"g3 efg|"B"f2f de"|"f|ecA "B"A2e|
w: f2 f d e f g3  e f g f2 f d e f e c A A2 e
"|"f2f def|"|"gfg efg|f2d "|"g2f|edc d3:||
w: f2 f d e f g f g e f g f2 d g2 f e d c d3

